X:1
T:Title
%%score { ( 1 3 ) | ( 2 4 ) }
L:1/8
M:4/4
K:Bb
V:1 treble nm="Grand Piano"
V:3 treble 
V:2 bass 
V:4 bass 
V:1
 z4 z2[Q:1/4=106] [DF]2 | [DB]2 [DA]2 [DG]2 [DA]2 | [_DG]4 [=DF]2 [DF]2 | [EG]2 [EA]2 [FB]2 [Fc]2 | %4
[M:3/4] [DB]6 |[M:1/4] [Dd]2 |[M:4/4] [Dc]2 [DB]2 [DA]2 [DG]2 | [Cc]4 [A,DF]2 [=B,FG]2 | %8
 [CFA]2 [DFB]2 [B,=EG]3 [A,F] |[M:3/4] [A,F]6 |[M:1/4] [A,EF]2 | %11
[M:4/4] [B,DF]2 [A,DF]2 [G,DF]2 [A,DF]2 |[M:9/8] [G,EF]3 [F,EF] [F,DF]2- [F,DF] [B,DF]2 | %13
[M:4/4] [B,EG]2 [CEA]2 [B,FB]2 [Ge]2 |[M:7/8] d3 z z z2 |] %15
V:2
 z4 z2 [B,,F,]2 | [B,,F,]2 [B,,F,]2 [B,,F,]2 [B,,F,]2 | [B,,=E,]4 [B,,F,]2 [B,,B,]2 | %3
 [E,B,]2 [C,C]2 [D,B,]2 [F,A,]2 |[M:3/4] [C,B,]6 |[M:1/4] [B,,F,]2 | %6
[M:4/4] [B,,F,]2 [B,,F,]2 [B,,F,]2 [B,,F,]2 | [A,,F,]4 D,2 _D,2 | C,2 C,2 C,3 F, |[M:3/4] F,6 | %10
[M:1/4] F,2 |[M:4/4] B,,2 B,,2 B,,2 B,,2 |[M:9/8] C,2 B,, A,, B,,2- B,, B,,2 | %13
[M:4/4] E,2 C,2 D,2 [E,B,]2 |[M:7/8] [F,F]3 z z z2 |] %15
V:3
 x8 | x8 | x8 | x8 |[M:3/4] x6 |[M:1/4] x2 |[M:4/4] x8 | x8 | x8 |[M:3/4] x6 |[M:1/4] x2 | %11
[M:4/4] x8 |[M:9/8] x9 |[M:4/4] x8 |[M:7/8] z2 A, c [DB]3 |] %15
V:4
 x8 | x8 | x8 | x8 |[M:3/4] x6 |[M:1/4] x2 |[M:4/4] x8 | x8 | x8 |[M:3/4] x6 |[M:1/4] x2 | %11
[M:4/4] x8 |[M:9/8] x9 |[M:4/4] x8 |[M:7/8] B,2 z [F,A,E] [B,,B,]3 |] %15

